app/img/icomoon/quotes.svg

<svg width="22" height="14" viewBox="0 0 22 14" fill="none" xmlns="http://www.w3.org/2000/svg">
<path d="M11.7072 9.71333C11.7072 7.86299 12.3809 6.03985 13.7283 4.24393C15.0756 2.4208 16.8002 1.00583 18.9021 -0.000976562L21.3274 2.52964C19.0638 3.45481 17.5548 4.59767 16.8002 5.95822C16.908 5.93101 17.0832 5.9174 17.3257 5.9174C18.2689 5.9174 19.0503 6.21672 19.6701 6.81536C20.2899 7.414 20.5998 8.27115 20.5998 9.3868C20.5998 10.6385 20.1013 11.7269 19.1042 12.6521C18.1341 13.5501 17.0428 13.9991 15.8301 13.9991C14.6984 13.9991 13.7283 13.6181 12.9198 12.8562C12.1114 12.0943 11.7072 11.0467 11.7072 9.71333ZM0.498047 9.71333C0.498047 7.86299 1.17173 6.03985 2.51908 4.24393C3.86644 2.4208 5.59106 1.00583 7.69294 -0.000976562L10.1182 2.52964C7.85462 3.45481 6.34558 4.59767 5.59106 5.95822C5.69885 5.93101 5.87401 5.9174 6.11653 5.9174C7.05968 5.9174 7.84115 6.21672 8.46093 6.81536C9.08072 7.414 9.39061 8.27115 9.39061 9.3868C9.39061 10.6385 8.89209 11.7269 7.89504 12.6521C6.92494 13.5501 5.83358 13.9991 4.62096 13.9991C3.48918 13.9991 2.51908 13.6181 1.71067 12.8562C0.902254 12.0943 0.498047 11.0467 0.498047 9.71333Z" fill="white"/>
</svg>

<svg width="22" height="14" fill="none" xmlns="http://www.w3.org/2000/svg"><path d="M11.707 9.713c0-1.85.674-3.673 2.021-5.47C15.076 2.422 16.8 1.007 18.902 0l2.425 2.53c-2.263.926-3.772 2.069-4.527 3.43.108-.028.283-.042.526-.042.943 0 1.724.3 2.344.898.62.599.93 1.456.93 2.572 0 1.252-.499 2.34-1.496 3.265-.97.898-2.061 1.347-3.274 1.347-1.132 0-2.102-.38-2.91-1.143-.809-.762-1.213-1.81-1.213-3.143zm-11.209 0c0-1.85.674-3.673 2.021-5.47C3.866 2.422 5.591 1.007 7.693 0l2.425 2.53c-2.263.926-3.772 2.069-4.527 3.43.108-.028.283-.042.526-.042.943 0 1.724.3 2.344.898.62.599.93 1.456.93 2.572 0 1.252-.499 2.34-1.496 3.265C6.925 13.55 5.834 14 4.621 14c-1.132 0-2.102-.38-2.91-1.143-.809-.762-1.213-1.81-1.213-3.143z" fill="#fff"/></svg>
